X:1
T:Contrapunctus XI a 4 (A = 415 Hz)
T:BWV 1080 The Art of Fugue
T:J. S. Bach
%%score { 1 | 2 } { 3 | 4 }
L:1/8
M:2/4
K:E
V:1 alto1 nm="Harp"
V:2 alto 
V:3 tenor nm="Harp"
V:4 bass 
V:1
 z4 | z4 | z4 | z4 | z G dc | z B ^AG | z =G ^G^A | z B/c/ B^A | G^A B^B | c^B/^A/ Bc | df ed | %11
 gc ^A^B | c2 B^A | Gd cB- | B^A G=G | GD z ^A | ^B c2 d | Gg/a/ gf | e^B c z | z4 | z e dc | %21
 ^Bd gf | z e dc | z ^B cd | z e/f/ ed | c3 ^B | c2 z2 | z C =D^D | E^E F=G | %29
 G/^A/B/G/ e3/2d/4c/4 | ^Bc f2- | fe/d/ e/f/e/d/ | cf/^e/ f/g/f/=e/ | d^e f=g | g/f/e/d/ c/^B/c- | %35
 c/B/A/G/ =G/^G/=G/^G/ | =G d2 =d | c^B =B^A- | A/G/ z/ g/ ^A/G/A/^B/ | c z/ c/ d/c/d/^e/ | %40
 f/F/f ^e=e- | e/c/d ef | Be d=d- | d/c/B/^A/ B/=A/G- | G/^A/B- B/A/^B/d/- | d/c^B/ c/G=G/ | %46
 G2 z z/ G/ | A^A B2- | B/c/B/A/ Gc- | c/d/c/B/ ^Ad- | d/e/d/c/ B^B | cd e^e | fg a2- | a/d/g =gf | %54
 ^e=e d=d | c>^B c/B/c/d/ | ^Be ^A=A | Gc F2 | EF G/F/G | CF ^E=E- | ED EF | B, z/ B/ c/B/c/d/ | %62
 Ge d=d- | d/c/ z/ c/ =d/c/d/e/ | f z/ f/ g/=g/^g/^a/ | =g/^a/d =dc | ^Be d=d | dd =dc | %68
 ^B=B ^A=A | G3 =G | G z2 c | cB z A | AG/^A/ BA/B/ | cB/c/ dc- | cB ^A^B | cg cd | z e fg | %77
 z a gf | z e/d/ ef | g>f ^e=e | d=d c^B | B^A ^Bc | d4- | d/c/^B/d/ c/=B/A/c/ | B/A/G/B/ A/f^e/ | %85
 f/e/d/c/ B/c/A/B/ | G2- G/A/G/A/ | B e2 d | e2 z2 | z4 | z4 | z4 | z2 z A- | A/G/B/B/ B/^A/c/c/ | %94
 c/^B/d/d/ d/c/e/e/ | e/d/^e/=g/ ^g/=g/^g- |[K:treble] g/^e/f/f/ f/d/=e/e/ |[K:alto1] d2 =dc- | %98
 c/^A/B/d/ GA- | A/=G/^G/B/ ^A/c/^B/d/ | c/^B/ c2 f | eG/F/ GA- | A/F/G/G/ G/E/F/F/ | %103
 E/D/4C/4c ^A^B | cB ^A=A- | A/G/c- c/^A/^B/d/ | gG/c/ c/^A/B/B/ | B/G/A/A/ B/c/=d- | dc ^de- | %109
 e/c/=d/d/ d/B/c/c/ | d^e f=d | ^Bc ^A=B | G A2 G | AE B^B | cG d2 | ed c/d/c | gf- f/d/e/e/ | %117
 e/=d/^d/d/ d/^B/c/c/ | c/^A/B/B/ B/G/A/A/ | ^A/d/G- G/B/A/G/ | =G^A ^GB | ^Ac- c/B/=d/d/ | %122
 =d/c/e/e/ e/^d/f/f/ | f/e/b/b/ b/a/e/e/ | e/d/d/d/ d/c/a/a/ | ^Bc ^Ad | Gc/d/ e2- | %127
 e/dc/ B/^A/-A/4G/4A/ | G2 z =G | G>G ^A/c/^B/B/ | ^B/d/c/c/ c/e/d/d/ | d/f/e/e/ e/c/d/d/ | %132
 d/^B/c/c/ c/B/d/c/ | e/d/f- f/e/d/c/ | ^B/G/ c2 B | c/G/c/c/ c/^A/B/B/ | AG- G/F/A/A/ | %137
 A/G/B/B/ B/^A/c/c/ | c/^B/c/d/ e/d/e/f/ | de cd | ^Bc z2 | z g- g/^e/f/f/ | f/d/e/e/ e/=d/^d/d/ | %143
 =d^d/c/ ^Bc/=B/ | ^A B2 A | BF c=d | d^A ^e2 | f^e d/e/d | ^a/=d/^d- d/^B/c/c/ | %149
 c/^A/B/B/ B/G/^A/A/ | GA =G^G | cd ^Bc- | c/e/d/d/ d/f/e/e/ | e/g/f/f/ f/a/g/g/ | fF- F/A/G/G/ | %155
 G/^E/F/F/ F/A/=d- | d/c/f/e/ ^d/c/^B/c/ | ^Bg cd | z e fg | z a gf | z e/d/ ef | gc- c/A/B/B/ | %162
 B2- B/=G/A/A/ | A2 z c- | c/e/d/d/ e2- | e/c/=d/d/ d>d | c/B/A/G/ FE- | E/=G/F/F/ F/A/^G/G/ | %168
 G/B/^A/A/ A/c/^B/B/ | ^B/d/c/c/ c/e/d/d/ | G2 z f | ^B/d/c/c/ c/e/d/d/ | d/f/e/d/ g/c/f/f/ | %173
 f/d/e/e/ e/c/d | cG z A- | A/G/B/B/ B/^A/f- | f/e/f/d/ ea | g/^B/c/c/ c/^A/=B/B/ | %178
 B/G/^A/c/ F/=A/B/A/ | Ec gf | z e dc | z ^B cd | z [ce]/[df]/ [ce][^Bd] | !fermata!c4 |] %184
V:2
 z C GF | z E DC | z ^B, CD | z E/F/ ED | CB,/^A,/ B,C | DG, C/D/E |{E} D>C B,/^A,/G,/=G,/ | %7
 G,G- G/C/F- | FE/F/ ED | EG F/G/A- | AG/A/ GF- | FE CF- | FE D/G=G/ | G=G/^E/ G^G | C/D/E DC- | %15
 CB, ED/C/ | DE F2- | FE/D/ EA | GF G=d- | dc/=d/ cB- | BA/B/ AG | F^B, z G | c/BA/- A/GA/ | %23
 =CA GF | E c2 ^B/=B/ | ^A=A G2 | G2 G,2 | A,E, B,^B, | CG, D2 | ED C/D/C | G>G ^A/G/A/^B/ | %31
 cG c^B | B^A =AG | =G/B/^A/^G/ A/c/B/A/ | G2 z z/ E/ | DF E^E | D/^E/=G/D/ ^G2 | =GF ^GD- | %38
 DG =GF- | F/E/ A2 G | cB/^A/ Bc | FB ^A=A- | A/G/c- c/4B/4A/4G/4F/^E/ | F=G F>F | ED/=D/ ^D z | %45
 z F ^EE | D z/ D/ E^E | F2- F/E/D | E F2 ^E | F G2 =G | GD- D/D/4E/4F/4G/4A/ | %51
 GF E z/[K:alto1] c/ | d/c/d/^e/ f/=e/=d/c/ | ^B c2 d | G z/[K:alto] AG/F/^E/ | F=G ^G^A | %56
 G z/ ^B,/ C/B,/C/D/ | G, z/ G,/ A,/G,/A,/B,/ | C/A,/=D/C/ B,/D/C/B,/- | B,/^A,/ B,2 C | F, z z2 | %61
 z G =GF- | F/E/ z/ E/ F/E/F/G/ | A/E/A/c/ B/^A/B/c/ | ^A/c/F ^E=E | D z/ =G/ ^G/=G/^G/^A/ | %66
 D>C ^B,=B, | ^A,/^A/G/=G/ ^G/B/A/G/ | =GF ^E=E | DE D2 | D z2 E | ED z F | FE z =G- | G^G z G | %74
 =G ^G2 F | E/D/ C2 F | E/G/A/c/ ^B=B | ^A/^B/c =B=A | G z z2 | z ^A B/c/4=d/4c- | %80
 c/B/4A/4G/F/ ^E/C/F/D/ | ^E/G/F- F/G/A- | AG/A/ G/F/E/D/ | EG CD | z E FG | z A GF | z E/D/ EF | %87
 G/A/ B2 A- | AG z2 | z2 z A,- | A,/G,/B,/B,/ B,/^A,/C/C/ | C/B,/C/D/ E/D/E/F/ | D/F/E/D/ CD | %93
 EB, F=G | GD ^A2 | B^A G/A/G |[K:alto1] d2 z c- | c/^A/B/B/ B/G/A/A/ | ^A/=G/^G/B/ ^E=E | D2 ^EA | %100
[K:alto] GC GF | z E DC | z ^B, CD | z E/F/ ED | CG- G/^E/F/F/ | F/D/E/E/ E/C/D/D/ | %106
 D/^B,/C z =B, | ED =D z/ B/- | B/G/A/A/ A/F/=G/G/ | F>G ^E>F | B,B- B/G/A/A/ | G2 F2 | %112
 E2- E/F/E/=D/- | D/C/E/E/ E/=D/F/F/ | F/^E/G/G/ G/F/^A/A/ | G^A/^B/ c z | z2 z c- | %117
 c/^A/B/B/ B/G/A/A/ | ^A/=G/^G/G/ G/^E/=G/G/ | =G/^G/4F/4^E/D/ E2- | E/D/=G/G/ G/^E/^G/G/ | %121
 G/=G/^A/A/ A/^G/B/B/ | B/^A/c/c/ c/^B/d/d/ | d/c/=d/d/ d/c/c/c/ | c/B/F/F/ Ec/c/ | A/F/G =G^G/F/ | %126
 ^E=G- G/^A/^G/B/ | ^A G2 =G | GF ^E=E | D>D E/G/D/D/ | D/F/E/E/ E/G/F/F/ | F/A/G/c/ c/^A/^B/B/ | %132
 ^B/D/E/E/ A2- | A>A GF- | FE/C/ F2- | FE/F/ E=D- | D/C/E/E/ E/^D/F/F/ | F/^E/G/G/ G/=G/^A/A/ | %138
 ^A/G/A/^B/ c/B/c/d/ | ^B=B ^A=A | GA ^AB | ^Bc =d2- | d/^B/c/c/ c/^A/=B/B/ | ^A=A G=G | %144
 F/=G/F/E/ =D/C/E/E/ | E/D/F/F/ F/^E/G/G/ | G/=G/^A/A/ A/^G/B/B/ | B/^A/G/A/ FB | ^A z z2 | %149
 z G- G/^E/F/F/ | ^E=E D z | z2 z G- | G/E/F/F/ F/D/E/E/ | E/C/D/D/ D/^B,/C- | %154
 C/^A,/B,/D/ D/F/^E/E/ | ^E/C/D- D/F/E/E/ | ^E/G/F/F/ F/G/A- | AD GF | z E DC | z ^B, CD | %160
 z E/F/ E=D | C^E F2- | FE/D/ E2- | E/C/=D/A/ A/F/G/G/ | FB- B/^A/c/c/ | B z z/ F/^E- | %166
 EF z/ =D/C/B,/ | C>E D/D/D/F/ | ^E/E/E/G/ F2- | F/A/G/G/ G/c/A/A/ | DC A2- | AG A2 | G2 z F | %173
 G>A G/E/F/F/ | EC GF | z E DC | z ^B, CD | z E/F/ ED | C2 ^B,=B, | C/AGB/d/A/ | %180
 G/c/^B/=B/ ^A/=A/G/=G/ | G/A/F/G/ EA | ^B,G/A/ GF | !fermata!^E4 |] %184
V:3
 z4 | z4 | z4 | z4 | z4 | z4 | z4 | z4 | z4 | z4 | z4 | z4 | z G, DC | z B, ^A,G, | z =G, ^G,^A, | %15
 z B,/C/ B,^A, | G,2 ^A,^B, | C2 z C/^B,/ | CD E^E | F-F/^E/ FG | CF/F/ FE | D2 CD, | E,C FE | %23
 D/ED/ G,/C^B,/ | CG AD | E2 D/E/F- | FE z2 | z4 | z4 | z4 | z4 | z4 | z4 | z2 D,2 | E,B,, F,=G, | %35
 G,D, ^A,2 | B,^A, G,/A,/G, | DD =DC | ^B, E2 D | C z z2 | z z/ F,/ G,/F,/G,/^A,/ | B, z z2 | z4 | %43
 z C, =D,^D, | E,^E, F,=G, | G, z/ G,/ A,^A, | B,^B, C/=D/C/=B,/ | C2 F,B,/A,/ | %48
 G,/E,/B,- B,/D/C/B,/ | ^A,/F,/C- C/E/D/C/ | B,^A, G,/4A,/4B,/4C/4D | E^B, C/ z/ z | z4 | %53
 z z/ G,/ ^A,/G,/A,/^B,/ | C/G,/C z2 | z/ ^B,,/C,/D,/ E,/D,/E, | D,G, =G,F, | ^E,=E, D,=D, | %58
 C, z z2 | z z/ F,/ G,/F,/G,/^A,/ | B,/C/B, ^A,=A,- | A,G, ^A,/G,/A,/^B,/ | C/G,/ C2 B, | %63
 A,F ^E=E- | ED =DC- | C^B, =B,^A,- | A,G, z/ z ^E/ | D/C/B,/^A,/ B,C | D/=D/^D/B,/ C/^B,/C/F,/ | %69
 G,/^A,/B, A,2 | B,D G,^A, | z B, CD | z E DC | z B,/^A,/ B,C | D2 z A, | G,B, ^A,=A, | %76
 G,C, D,/C,/D,/^E,/ | F,^E,/D,/ E,/G,/^B,/D/ | C>^B, D/C/E/D/ | E/D/C z =G | GB,- B,/A,/G,/F,/ | %81
 C2 DE | FG, z G,/A,/ | G,>F, E,/C,/F,- | F,E,- E,/C,/=D, | C,F,/E,/ D,/C,/D,/B,,/ | E, z z2 | %87
 z G F/E/F | E2 z =D,- | D,/C,/E,/E,/ E,/^D,/F,/F,/ | F,/^E,/G,/G,/ G,/=G,/^A,/A,/ | %91
 ^A,/G,/A,/^B,/ C/=G,/^G,/A,/ | B,>B, A,/G,/A,/B,/ | CG, D2- | DC/^B,/ E z | z C ^B,=B,- | %96
 B,^A, B,F | F2 z E- | E/=D/^D/D/ D/^B,/C/C/ | C/^A,/B, CD | G,>G, ^A,^B, | C z2 F | DF, E,^B,, | %103
 C,G, CG- | G z C2 | ^B,E ^A,=A, | G,C F,2 | E,F, G,/F,/G, | C,E, B,3/2C/4B,/4 | %109
 ^A,B,- B,/G,/=A,/A,/ | A,/F,/G,/G,/ F,F | D C2 B,- | B,A,/B,/ CB, | A,>G, F,/A,/G,/F,/ | %114
 G,C/B,/ ^A,/^B,/C- | C/^B,/F- F/D/E/E/ | E/=D/^D/D/ D/G,/C/B,/ | ^A,=A, G, z/ G,/ | =G,F, ^E,=E, | %119
 D,3 C, | D, D2 =D | D=G, ^G, z | z z2 D | E^E F=G | G2- G/E/F/F/ | F/D/E/E/ E/C/D/D/ | %126
 D/B,/C/C/ C2- | CB, E^A, | B,/C/D/D/ D/^B,/C/C/ | C/^A,/B,/B,/ C/E/=A,/A,/ | %130
 A,/F,/G,/G,/ G,/E,/F,/F,/ | F,/D,/E, z A, | G,2 F,2- | F,D, E,F, | G,>A, A,/G,/G,/F,/ | G,2 z G, | %136
 A,E, B,^B, | CG, D2 | ED C/D/C | G/D/G/G/ G/^E/F/F/ | F/D/E/E/ E/=G/F/F/ | F/A/G B,2 | A, z2 F | %143
 ^ED- D/F/E/=D/ | C z z2 | z D, ^A,G, | z F, ^E,D, | z =D, ^D,^E, | z F,/G,/ F,^E, | D,2 z D- | %150
 D/^B,/C/C/ C/^A,/=B,/B,/ | ^A,=A, G,>B, | A,/G,/A, z G,/^A,/ | ^B,/^A,/B, z =B, | %154
 ^A,/C/B,/B,/ B,2- | B,/G,/A,/A,/ A,/F,/G,/G,/ | G,/^E,/F,/F,/ F,/D,/=E,/E,/ | %157
 D,/G,/^B, z[K:alto1] A- | A/G/c- c/B/A/G/ | A z[K:tenor] z/ G,/^B,/G,/ | C>^B, C>=B,- | %161
 B,/G,/A,/A,/ A,2- | A,/F,/=G,/G,/ G,2- | G,/E,/F, CB, | z A, G,F, | z ^E, F,G, | z A,/B,/ A,G, | %167
 F, z z2 | z C- C/E/D/D/ | D/F/E/E/ E/G/F/F/ | ^B,C F,2- | F,E, z C | ^B,2 z C | ^B,C z ^B,, | %174
 C,/D,/E,/E,/ E,/D,/F,/F,/ | F,/E,/G,/G,/ G,/F,/A,/A,/ | A,/G,/A,/F,/ G,>F, | E,/D,/C, G,2- | %178
 G, F,2 G, | A,E, B,^B, | CG, D2 | ED C/D/C | FC G,2- | !fermata!G,4 |] %184
V:4
 z4 | z4 | z4 | z4 | z4 | z4 | z4 | z4 | z C, G,F, | z E, D,C, | z ^B,, C,D, | z E,/F,/ E,D, | %12
 C,2 z D, | z D,/C,/ D,E, | ^A,,B,,/C,/ B,,A,, | G,,G, C,F,- | F,E,/F,/ E,D, | C, z z2 | %18
 z C,/D,/ C,B,, | A,,A, D,^E, | F,3 G, | A,G,/F,/ E,/D,/C,/^B,,/ | C, z2 C, | G,F, E,A, | %24
 G,/F,/E, F,G,- | G,/=G,/^G,/=G,/ ^G,G,, | C,2 z2 | z4 | z4 | z G,2 =G, | F,^E, =E,D, | C,2 z2 | %32
 z4 | z4 | z G,, A,,^A,, | B,,^B,, C,=D, | D,2 E,2 | D, z/ D,/ ^E,/D,/E,/=G,/ | G, z z2 | %39
 z C, ^B,,=B,, | ^A,, D,2 C, | B,, z/ B,,/ C,/B,,/C,/D,/ | E,/D,/E,/F,/ G,G,, | A,,E,, B,,^B,, | %44
 C,G,, D,2 | E,D, C,/D,/C, | G,2 z/ z G,/ | F,/G,/F,/E,/ D,/C,/B,, | C,D, E, z/ C,/ | %49
 D,^E, F, z/ D,/ | ^E,=G, ^G, z/ F,/ | E,/F,/E,/D,/ C,/G,,/C,/B,,/ | A,,/B,,/A,,/G,,/ F,,/C,/F,- | %53
 F,^E, =E,D, | z C, ^B,,=B,, | ^A,,=A,, G,,=G,, | G,,2 z ^B,, | C,2 z G,, | A,,/G,,/ F,,2 ^E,, | %59
 E,,D,, =D,,C,, | B,,, z/ B,,/ C,/B,,/C,/D,/ | E,/B,,/ E,2 D, | C, z z2 | z A, G,=G, | F, z z2 | %65
 z z/ D,/ ^E,/D,/E,/=G,/ | G,/D,/G,- G,/=G,/^G, | =G,B, ^E,=E, | D,G, C,2 | B,,C, D,/C,/D, | %70
 G,, z2 =G, | G,2 z ^B,, | C,2 z D, | E,2 z ^A,, | B,,/^A,,/B,,/C,/ D,/D,,/D, | E,^E, F,^B,, | %76
 C, z z2 | z C, =D,^D, | E,A, G,F, | CC, G,,^A,, | z B,, C,D, | z E, D,C, | z ^B,,/G,,/ ^A,,B,, | %83
 C,G,, A,,F,, | G,,C, F,,2- | F,,2 G,,2- | G,,^A,,/^B,,/ C,=A,, | E,G,,/A,,/ B,,B,,, | E,,2 G,,2 | %89
 A,,E,, B,,^B,, | C,G,, D,2 | E,D, C,/D,/C, | G,/D,/ G,2 F, | E,F,/E,/ D,/C,/D, | G,, G,2 =G, | %95
 G,2 z =D, | D,2 G,^A, | B,D, ^E,=G, | G,4- | G,G,- G,/^E,/F,/F,/ | F,/D,/E,/E,/ E,/C,/D,/D,/ | %101
 D,/^B,,/C,/D,/ E,/D,/E,/F,/ | ^B,, z2 A,,- | A,,/=G,,/^G,,/G,,/ G,,/E,,/F,,/F,,/ | %104
 F,,/D,,/^E,,/E,,/ F,,D,, | G,,G, =G,F, | ^E,=E, D,=D, | C,=C, B,,E, | A,,2 z2 | z4 | z2 z F,,- | %111
 F,,/D,,/E,,/E,,/ E,,/C,,/=D,,/D,,/ | =D,,/B,,,/C,,/D,,/ E,,/D,,/E,, | A,,C, =D,2 | C,^E, F,=G, | %115
 G, z/ G,/ A,^A, | B,^B, CC, | F,B,, E,^A,, | D, z/ D,/ =D,C, | ^B,,=B,, ^A,,/G,,/A,, | D,,2 z2 | %121
 z D, E,^E, | F,=G, ^G, z | z G, A,^A, | B,^B, C2- | CC/C/ C/^A,/B,/B,/ | %126
 B,/G,/^A,/A,/ A,/=G,/^G,/G,/ | =G,^G, C,D, | G,,4- | G,,G,/G,/ G,/E,/F,/F,/ | %130
 F,/D,/E,/E,/ E,/C,/D,/D,/ | D,/^B,,/C, G,F, | z E, D,C, | z ^B,, C,D, | z E,/F,/ E,D, | %135
 C,/^B,,/C,/D,/ E,^E, | F,C, G,2- | G,4- | G,4- | G, z z2 | z C,- C,/E,/D,/D,/ | %141
 D,/F,/^E,/E,/ E,/G,/F,/F,/ | F,/A,/G,/G,/ G,2- | G,/^E,/F,/F,/ F,/D,/=E,/E,/ | %144
 E,/C,/=D,/E,/ F,F,, | B,,2 z E, | D,2 =D,G, | F, B,,2 ^A,,/G,,/ | F,,B,, G,,^A,, | %149
 =G,,^G,, D,, z | z z2 G,- | G,/^E,/F,/F,/ F,/D,/E, | F,^B,, z C, | F,A, z ^E, | E,D, z =D, | %155
 C,^B,, z =B,, | ^A,, =A,,2 G,,/=G,,/ | G,, z/ F,/ E,/D,/C,/^B,,/ | C, z/ C,/ D,^E, | %159
 F,/E,/D,/F,/ E,2- | E,/E,/A,- A,/G,/F, | ^E, z/ C,/ =D,^D, | E, z/ B,,/ =C,^C, | =D,A, ^D,^E, | %164
 z F, G,^A, | z B, A,G, | z F,/^E,/ F,G, | ^A,^A,, B,,^B,, | C,2 z A,- | %169
 A,/F,/G,/G,/ G,/E,/F,/F,/ | F,/D,/E,/E,/ E,/C,/D,/D,/ | D,/^B,,/C, F,,F,- | F,G,/F,/ E,A, | %173
 G,>F, G,G,, | A,,E,, B,,^B,, | C,G,, D,2 | E,D, C,/D,/C, | G,A, G,>F, | ^E,=E, D,=D,- | %179
 D,/C,/E,/E,/ E,/^D,/F,/F,/ | F,/E,/G,/G,/ G,/F,/A,/A,/ | G,2- G,>=G, | G,2- G,G,, | %183
 !fermata!C,4 |] %184

